X: 4893
T: Braigh Loch Iall
R: waltz
M: 3/4
K: Aminor
|e|A>GB A2A|a>ge d<eg|G<BA G2B|d>eg e<dB|
B<AG A2A|a>ge d<eg|B<GB d>eg|B2A A2:|
g|a>ea a2e|a>ge d<eg|G<BA G2B|d>eg e<dB|
B<AG A2A|a>ge d<eg|B<GB d>eg|B2A A2:|

